svg/users.svg

<svg width="24" height="24" viewBox="0 0 24 24" fill="none" xmlns="http://www.w3.org/2000/svg">
<path d="M10 4C7.79086 4 6 5.79086 6 8C6 10.2091 7.79086 12 10 12C12.2091 12 14 10.2091 14 8C14 5.79086 12.2091 4 10 4ZM4 8C4 4.68629 6.68629 2 10 2C13.3137 2 16 4.68629 16 8C16 11.3137 13.3137 14 10 14C6.68629 14 4 11.3137 4 8ZM16.8284 3.75736C17.219 3.36683 17.8521 3.36683 18.2426 3.75736C20.5858 6.10051 20.5858 9.8995 18.2426 12.2426C17.8521 12.6332 17.219 12.6332 16.8284 12.2426C16.4379 11.8521 16.4379 11.219 16.8284 10.8284C18.3905 9.26633 18.3905 6.73367 16.8284 5.17157C16.4379 4.78105 16.4379 4.14788 16.8284 3.75736ZM17.5299 16.7575C17.6638 16.2217 18.2067 15.8959 18.7425 16.0299C20.0705 16.3618 20.911 17.2109 21.3944 18.1778C21.8622 19.1133 22 20.1571 22 21C22 21.5523 21.5523 22 21 22C20.4477 22 20 21.5523 20 21C20 20.3429 19.8878 19.6367 19.6056 19.0722C19.339 18.5391 18.9295 18.1382 18.2575 17.9701C17.7217 17.8362 17.3959 17.2933 17.5299 16.7575ZM6.5 18C5.24054 18 4 19.2135 4 21C4 21.5523 3.55228 22 3 22C2.44772 22 2 21.5523 2 21C2 18.3682 3.89347 16 6.5 16H13.5C16.1065 16 18 18.3682 18 21C18 21.5523 17.5523 22 17 22C16.4477 22 16 21.5523 16 21C16 19.2135 14.7595 18 13.5 18H6.5Z" fill="#0D0D0D"/>
</svg>

<svg width="24" height="24" fill="none" xmlns="http://www.w3.org/2000/svg"><path d="M10 4a4 4 0 100 8 4 4 0 000-8zM4 8a6 6 0 1112 0A6 6 0 014 8zm12.828-4.243a1 1 0 011.415 0 6 6 0 010 8.486 1 1 0 11-1.415-1.415 4 4 0 000-5.656 1 1 0 010-1.415zm.702 13a1 1 0 011.212-.727c1.328.332 2.169 1.18 2.652 2.148.468.935.606 1.98.606 2.822a1 1 0 11-2 0c0-.657-.112-1.363-.394-1.928-.267-.533-.677-.934-1.349-1.102a1 1 0 01-.727-1.212zM6.5 18C5.24 18 4 19.213 4 21a1 1 0 11-2 0c0-2.632 1.893-5 4.5-5h7c2.607 0 4.5 2.368 4.5 5a1 1 0 11-2 0c0-1.787-1.24-3-2.5-3h-7z" fill="#0D0D0D"/></svg>
